assets/images/simple-illustrations/advanced-approvals-icon-square.svg

<svg xmlns="http://www.w3.org/2000/svg" width="42.66" height="23.722" fill="none" viewBox="-0.647 -9.26 43.953 45"><g id="Illustration"><g id="Shape"><path fill="#4ED7DE" d="M41.3682 21.4853C41.3682 22.6985 40.58 23.103 39.3949 23.103C38.2097 23.103 36.0795 23.103 34.2578 23.103C32.4362 23.103 30.3814 23.103 29.1233 23.103C27.8651 23.103 27.1479 22.6985 27.1479 21.4853C27.1479 18.25 30.7035 15.8235 34.2578 15.8235C37.8122 15.8235 41.3682 18.25 41.3682 21.4853Z"/><path fill="#4ED7DE" d="M37.4195 11.7794C37.4195 13.5662 36.0045 15.0147 34.2591 15.0147C32.5136 15.0147 31.0986 13.5662 31.0986 11.7794C31.0986 9.99262 32.5136 8.54413 34.2591 8.54413C36.0045 8.54413 37.4195 9.99262 37.4195 11.7794Z"/><path stroke="#002140" d="M41.3682 21.4853C41.3682 22.6985 40.58 23.103 39.3949 23.103C38.2097 23.103 36.0795 23.103 34.2578 23.103C32.4362 23.103 30.3814 23.103 29.1233 23.103C27.8651 23.103 27.1479 22.6985 27.1479 21.4853C27.1479 18.25 30.7035 15.8235 34.2578 15.8235C37.8122 15.8235 41.3682 18.25 41.3682 21.4853Z"/><path stroke="#002140" d="M37.4195 11.7794C37.4195 13.5662 36.0045 15.0147 34.2591 15.0147C32.5136 15.0147 31.0986 13.5662 31.0986 11.7794C31.0986 9.99262 32.5136 8.54413 34.2591 8.54413C36.0045 8.54413 37.4195 9.99262 37.4195 11.7794Z"/></g><g id="Shape_2"><path fill="#4BA6A6" d="M20.0376 8.91177C20.0376 9.62868 19.5719 9.86765 18.8716 9.86765C18.1712 9.86765 16.9125 9.86765 15.8361 9.86765C14.7596 9.86765 13.5455 9.86765 12.802 9.86765C12.0585 9.86765 11.6348 9.62868 11.6348 8.91177C11.6348 7 13.7358 5.56618 15.8361 5.56618C17.9364 5.56618 20.0376 7 20.0376 8.91177Z"/><path fill="#4BA6A6" d="M17.7043 3.17647C17.7043 4.23231 16.8682 5.08824 15.8368 5.08824C14.8054 5.08824 13.9692 4.23231 13.9692 3.17647C13.9692 2.12064 14.8054 1.26471 15.8368 1.26471C16.8682 1.26471 17.7043 2.12064 17.7043 3.17647Z"/><path stroke="#002140" d="M20.0376 8.91177C20.0376 9.62868 19.5719 9.86765 18.8716 9.86765C18.1712 9.86765 16.9125 9.86765 15.8361 9.86765C14.7596 9.86765 13.5455 9.86765 12.802 9.86765C12.0585 9.86765 11.6348 9.62868 11.6348 8.91177C11.6348 7 13.7358 5.56618 15.8361 5.56618C17.9364 5.56618 20.0376 7 20.0376 8.91177Z"/><path stroke="#002140" d="M17.7043 3.17647C17.7043 4.23231 16.8682 5.08824 15.8368 5.08824C14.8054 5.08824 13.9692 4.23231 13.9692 3.17647C13.9692 2.12064 14.8054 1.26471 15.8368 1.26471C16.8682 1.26471 17.7043 2.12064 17.7043 3.17647Z"/></g><g id="Shape_3"><path fill="#4BA6A6" d="M20.0376 22.1471C20.0376 22.864 19.5719 23.1029 18.8716 23.1029C18.1712 23.1029 16.9125 23.1029 15.8361 23.1029C14.7596 23.1029 13.5455 23.1029 12.802 23.1029C12.0585 23.1029 11.6348 22.864 11.6348 22.1471C11.6348 20.2353 13.7358 18.8015 15.8361 18.8015C17.9364 18.8015 20.0376 20.2353 20.0376 22.1471Z"/><path fill="#4BA6A6" d="M17.7043 16.4118C17.7043 17.4676 16.8682 18.3235 15.8368 18.3235C14.8054 18.3235 13.9692 17.4676 13.9692 16.4118C13.9692 15.3559 14.8054 14.5 15.8368 14.5C16.8682 14.5 17.7043 15.3559 17.7043 16.4118Z"/><path stroke="#002140" d="M20.0376 22.1471C20.0376 22.864 19.5719 23.1029 18.8716 23.1029C18.1712 23.1029 16.9125 23.1029 15.8361 23.1029C14.7596 23.1029 13.5455 23.1029 12.802 23.1029C12.0585 23.1029 11.6348 22.864 11.6348 22.1471C11.6348 20.2353 13.7358 18.8015 15.8361 18.8015C17.9364 18.8015 20.0376 20.2353 20.0376 22.1471Z"/><path stroke="#002140" d="M17.7043 16.4118C17.7043 17.4676 16.8682 18.3235 15.8368 18.3235C14.8054 18.3235 13.9692 17.4676 13.9692 16.4118C13.9692 15.3559 14.8054 14.5 15.8368 14.5C16.8682 14.5 17.7043 15.3559 17.7043 16.4118Z"/></g><g id="Shape_4"><path fill="#28736D" d="M6.46386 7.22057C6.46386 7.71689 6.14143 7.88233 5.65658 7.88233C5.17173 7.88233 4.30029 7.88233 3.55508 7.88233C2.80986 7.88233 1.96927 7.88233 1.45456 7.88233C0.939856 7.88233 0.646484 7.71689 0.646484 7.22057C0.646484 5.89704 2.10103 4.90439 3.55508 4.90439C5.00913 4.90439 6.46386 5.89704 6.46386 7.22057Z"/><path fill="#28736D" d="M4.8485 3.24998C4.8485 3.98095 4.26964 4.57351 3.55557 4.57351C2.84151 4.57351 2.26264 3.98095 2.26264 3.24998C2.26264 2.51902 2.84151 1.92645 3.55557 1.92645C4.26964 1.92645 4.8485 2.51902 4.8485 3.24998Z"/><path stroke="#002140" d="M6.46386 7.22057C6.46386 7.71689 6.14143 7.88233 5.65658 7.88233C5.17173 7.88233 4.30029 7.88233 3.55508 7.88233C2.80986 7.88233 1.96927 7.88233 1.45456 7.88233C0.939856 7.88233 0.646484 7.71689 0.646484 7.22057C0.646484 5.89704 2.10103 4.90439 3.55508 4.90439C5.00913 4.90439 6.46386 5.89704 6.46386 7.22057Z"/><path stroke="#002140" d="M4.8485 3.24998C4.8485 3.98095 4.26964 4.57351 3.55557 4.57351C2.84151 4.57351 2.26264 3.98095 2.26264 3.24998C2.26264 2.51902 2.84151 1.92645 3.55557 1.92645C4.26964 1.92645 4.8485 2.51902 4.8485 3.24998Z"/></g><g id="Shape_5"><path fill="#28736D" d="M6.46386 20.4559C6.46386 20.9522 6.14143 21.1176 5.65658 21.1176C5.17173 21.1176 4.30029 21.1176 3.55508 21.1176C2.80986 21.1176 1.96927 21.1176 1.45456 21.1176C0.939856 21.1176 0.646484 20.9522 0.646484 20.4559C0.646484 19.1323 2.10103 18.1397 3.55508 18.1397C5.00913 18.1397 6.46386 19.1323 6.46386 20.4559Z"/><path fill="#28736D" d="M4.8485 16.4853C4.8485 17.2162 4.26964 17.8088 3.55557 17.8088C2.84151 17.8088 2.26264 17.2162 2.26264 16.4853C2.26264 15.7543 2.84151 15.1617 3.55557 15.1617C4.26964 15.1617 4.8485 15.7543 4.8485 16.4853Z"/><path stroke="#002140" d="M6.46386 20.4559C6.46386 20.9522 6.14143 21.1176 5.65658 21.1176C5.17173 21.1176 4.30029 21.1176 3.55508 21.1176C2.80986 21.1176 1.96927 21.1176 1.45456 21.1176C0.939856 21.1176 0.646484 20.9522 0.646484 20.4559C0.646484 19.1323 2.10103 18.1397 3.55508 18.1397C5.00913 18.1397 6.46386 19.1323 6.46386 20.4559Z"/><path stroke="#002140" d="M4.8485 16.4853C4.8485 17.2162 4.26964 17.8088 3.55557 17.8088C2.84151 17.8088 2.26264 17.2162 2.26264 16.4853C2.26264 15.7543 2.84151 15.1617 3.55557 15.1617C4.26964 15.1617 4.8485 15.7543 4.8485 16.4853Z"/></g><g id="Group 77"><path id="Vector" fill="#03D47C" d="M34.7705 20.2027L33.7954 21.7006C33.7954 21.7006 35.5267 21.6758 38.7446 24.971C38.7446 24.971 39.8902 18.78 43.2793 15.0357L43.133 14.8363L41.8162 14.2374C41.8162 14.2374 39.2318 17.0579 37.9642 22.0008C37.9642 22.0008 36.3306 20.4532 34.7698 20.2035L34.7705 20.2027Z"/><path id="Vector_2" stroke="#002140" stroke-linecap="round" stroke-linejoin="round" d="M41.8439 14.2149C40.6872 15.2607 38.3467 19.5625 37.9404 22.0084C37.775 21.8451 36.9491 20.8934 34.7056 20.1193C34.6211 20.2622 33.8929 21.5088 33.8032 21.642C35.8593 21.9083 38.6877 24.8372 38.7774 24.9869C39.4196 21.1846 41.6219 16.4832 43.3069 14.9801C43.1137 14.877 42.0085 14.3255 41.8439 14.2142V14.2149Z"/></g><g id="Group 2272"><path id="Vector_3" fill="#03D47C" d="M17.0575 8.86864L16.6814 9.44639C16.6814 9.44639 17.3492 9.43682 18.5903 10.7078C18.5903 10.7078 19.0322 8.31991 20.3394 6.87569L20.283 6.79879L19.775 6.56781C19.775 6.56781 18.7782 7.65569 18.2893 9.56217C18.2893 9.56217 17.6592 8.96527 17.0572 8.86893L17.0575 8.86864Z"/><path id="Vector_4" stroke="#002140" stroke-linecap="round" stroke-linejoin="round" d="M18.4803 7.63025C18.3024 7.97488 18.1291 8.35617 17.997 8.72278C17.7882 8.60221 17.525 8.47742 17.1957 8.36381C16.9712 8.28632 16.7231 8.37752 16.6022 8.582C16.5959 8.59267 16.5795 8.62056 16.5574 8.6584C16.5231 8.7168 16.475 8.79889 16.4285 8.87784C16.3893 8.94436 16.3505 9.01005 16.3195 9.06199C16.2932 9.10614 16.278 9.13101 16.2724 9.14033C16.2704 9.14359 16.2695 9.14495 16.2698 9.14455C16.173 9.2883 16.1576 9.47192 16.229 9.62981C16.3004 9.78771 16.4485 9.89738 16.6203 9.91964C16.727 9.93345 16.8789 9.98888 17.0678 10.0958C17.251 10.1994 17.4398 10.3346 17.615 10.4754C17.789 10.6153 17.9419 10.7546 18.0526 10.8618C18.1079 10.9153 18.1513 10.9594 18.1803 10.99C18.1922 11.0026 18.2006 11.0117 18.2059 11.0176C18.3195 11.1663 18.5085 11.2405 18.6956 11.2053C18.9014 11.1665 19.0613 11.0037 19.0961 10.7972C19.2112 10.1161 19.4698 9.33839 19.7805 8.65962C20.0988 7.96407 20.4387 7.4453 20.683 7.22735C20.805 7.11856 20.8661 6.95703 20.8466 6.79476C20.8272 6.63249 20.7297 6.48997 20.5855 6.41306C20.5601 6.39952 20.4996 6.36872 20.4301 6.33332C20.3855 6.31061 20.3372 6.286 20.2921 6.26285C20.2307 6.23139 20.1718 6.20086 20.125 6.176C20.0962 6.16072 20.0788 6.15109 20.0699 6.14613C20.0606 6.14102 20.0604 6.1409 20.066 6.14469C19.9128 6.04104 19.7148 6.03046 19.5514 6.11721C19.5088 6.13984 19.4703 6.16814 19.4368 6.20088C19.2808 6.34581 19.1178 6.56269 18.9671 6.79091C18.806 7.0351 18.6376 7.32553 18.4803 7.63025ZM18.215 11.0281C18.2148 11.028 18.2128 11.0258 18.2096 11.0218C18.2135 11.0263 18.2151 11.0283 18.215 11.0281Z"/></g><g id="Group 2273"><path id="Vector_5" fill="#03D47C" d="M17.0575 22.1039L16.6814 22.6817C16.6814 22.6817 17.3492 22.6721 18.5903 23.9431C18.5903 23.9431 19.0322 21.5552 20.3394 20.111L20.283 20.0341L19.775 19.8031C19.775 19.8031 18.7782 20.891 18.2893 22.7975C18.2893 22.7975 17.6592 22.2006 17.0572 22.1042L17.0575 22.1039Z"/><path id="Vector_6" stroke="#002140" stroke-linecap="round" stroke-linejoin="round" d="M18.4803 20.8655C18.3024 21.2102 18.1291 21.5915 17.997 21.9581C17.7882 21.8375 17.525 21.7127 17.1957 21.5991C16.9712 21.5216 16.7231 21.6128 16.6022 21.8173C16.5959 21.828 16.5796 21.8559 16.5574 21.8937C16.5231 21.9521 16.475 22.0342 16.4285 22.1131C16.3893 22.1797 16.3505 22.2453 16.3195 22.2973C16.2932 22.3414 16.278 22.3663 16.2724 22.3756C16.2704 22.3789 16.2695 22.3802 16.2698 22.3798C16.173 22.5236 16.1576 22.7072 16.229 22.8651C16.3004 23.023 16.4485 23.1327 16.6203 23.1549C16.727 23.1687 16.8789 23.2242 17.0678 23.3311C17.251 23.4347 17.4398 23.5699 17.615 23.7107C17.789 23.8506 17.9419 23.9899 18.0526 24.0971C18.1079 24.1506 18.1513 24.1947 18.1803 24.2253C18.1922 24.2378 18.2006 24.247 18.2059 24.2528C18.3195 24.4016 18.5085 24.4758 18.6956 24.4406C18.9014 24.4018 19.0613 24.239 19.0961 24.0325C19.2112 23.3514 19.4698 22.5737 19.7805 21.8949C20.0988 21.1994 20.4387 20.6806 20.683 20.4626C20.805 20.3538 20.8661 20.1923 20.8466 20.0301C20.8272 19.8678 20.7297 19.7253 20.5855 19.6484C20.5601 19.6348 20.4996 19.604 20.4301 19.5686C20.3855 19.5459 20.3372 19.5213 20.2921 19.4981C20.2307 19.4667 20.1718 19.4361 20.125 19.4113C20.0962 19.396 20.0788 19.3864 20.0699 19.3814C20.0606 19.3763 20.0604 19.3762 20.066 19.38C19.9128 19.2763 19.7148 19.2658 19.5514 19.3525C19.5088 19.3751 19.4703 19.4034 19.4368 19.4362C19.2808 19.5811 19.1178 19.798 18.9671 20.0262C18.806 20.2704 18.6376 20.5608 18.4803 20.8655ZM18.215 24.2634C18.2148 24.2633 18.2128 24.261 18.2096 24.2571C18.2135 24.2616 18.2151 24.2636 18.215 24.2634Z"/></g><g id="Group 2269"><g id="Vector_7"><path fill="#0164BF" d="M9.96058 4.22149L9.99594 4.94304L11.4077 3.84857L9.89474 2.87691L9.93324 3.6615"/><path stroke="#0164BF" stroke-linecap="round" stroke-linejoin="round" d="M9.96058 4.22149L9.99594 4.94304L11.4077 3.84857L9.89474 2.87691L9.93324 3.6615"/></g><g id="Vector_8"><path fill="#0164BF" d="M9.96161 4.18544L8.09736 4.2186L8.03022 4.21875L8.00085 3.68853L9.93957 3.67334"/><path stroke="#0164BF" stroke-linecap="round" stroke-linejoin="round" d="M9.96161 4.18544L8.09736 4.2186L8.03022 4.21875L8.00085 3.68853L9.93957 3.67334"/></g></g><g id="Group 2270"><g id="Vector_9"><path fill="#0164BF" d="M9.96058 17.4568L9.99594 18.1783L11.4077 17.0839L9.89474 16.1122L9.93324 16.8968"/><path stroke="#0164BF" stroke-linecap="round" stroke-linejoin="round" d="M9.96058 17.4568L9.99594 18.1783L11.4077 17.0839L9.89474 16.1122L9.93324 16.8968"/></g><g id="Vector_10"><path fill="#0164BF" d="M9.96161 17.4207L8.09736 17.4539L8.03022 17.454L8.00085 16.9238L9.93957 16.9086"/><path stroke="#0164BF" stroke-linecap="round" stroke-linejoin="round" d="M9.96161 17.4207L8.09736 17.4539L8.03022 17.454L8.00085 16.9238L9.93957 16.9086"/></g></g><g id="Group 2268"><g id="Vector_11"><path fill="#0164BF" d="M24.5959 15.4391L25.3306 16.6031L26.6506 13.3986L23.2269 13.2701L24.0259 14.5357"/><path stroke="#0164BF" stroke-linecap="round" stroke-linejoin="round" d="M24.5959 15.4391L25.3306 16.6031L26.6506 13.3986L23.2269 13.2701L24.0259 14.5357"/></g><g id="Vector_12"><path fill="#0164BF" d="M24.5638 15.3781L21.4979 17.2639L21.3865 17.3301L20.841 16.4781L24.0475 14.5491"/><path stroke="#0164BF" stroke-linecap="round" stroke-linejoin="round" d="M24.5638 15.3781L21.4979 17.2639L21.3865 17.3301L20.841 16.4781L24.0475 14.5491"/></g></g><g id="Group 2271"><g id="Vector_13"><path fill="#0164BF" d="M24.5959 5.70077L25.3306 4.53681L26.6506 7.74133L23.2269 7.86983L24.0259 6.60423"/><path stroke="#0164BF" stroke-linecap="round" stroke-linejoin="round" d="M24.5959 5.70077L25.3306 4.53681L26.6506 7.74133L23.2269 7.86983L24.0259 6.60423"/></g><g id="Vector_14"><path fill="#0164BF" d="M24.5638 5.76176L21.4979 3.87603L21.3865 3.80984L20.841 4.66183L24.0475 6.59084"/><path stroke="#0164BF" stroke-linecap="round" stroke-linejoin="round" d="M24.5638 5.76176L21.4979 3.87603L21.3865 3.80984L20.841 4.66183L24.0475 6.59084"/></g></g></g></svg>

<svg xmlns="http://www.w3.org/2000/svg" width="42.66" height="23.722" fill="none" viewBox="-0.647 -9.26 43.953 45"><path fill="#4ed7de" d="M41.368 21.485c0 1.213-.788 1.618-1.973 1.618H29.123c-1.258 0-1.975-.405-1.975-1.618 0-3.235 3.555-5.661 7.11-5.661 3.554 0 7.11 2.426 7.11 5.661M37.42 11.78c0 1.786-1.416 3.235-3.16 3.235-1.746 0-3.161-1.449-3.161-3.236 0-1.786 1.415-3.235 3.16-3.235s3.16 1.449 3.16 3.235"/><path stroke="#002140" d="M41.368 21.485c0 1.213-.788 1.618-1.973 1.618H29.123c-1.258 0-1.975-.405-1.975-1.618 0-3.235 3.555-5.661 7.11-5.661 3.554 0 7.11 2.426 7.11 5.661ZM37.42 11.78c0 1.786-1.416 3.235-3.16 3.235-1.746 0-3.161-1.449-3.161-3.236 0-1.786 1.415-3.235 3.16-3.235s3.16 1.449 3.16 3.235Z"/><path fill="#4ba6a6" d="M20.038 8.912c0 .717-.466.956-1.166.956h-6.07c-.743 0-1.167-.24-1.167-.956 0-1.912 2.1-3.346 4.201-3.346S20.038 7 20.038 8.912M17.704 3.176c0 1.056-.836 1.912-1.867 1.912s-1.868-.856-1.868-1.912c0-1.055.836-1.911 1.868-1.911 1.031 0 1.867.856 1.867 1.911"/><path stroke="#002140" d="M20.038 8.912c0 .717-.466.956-1.166.956h-6.07c-.743 0-1.167-.24-1.167-.956 0-1.912 2.1-3.346 4.201-3.346S20.038 7 20.038 8.912ZM17.704 3.176c0 1.056-.836 1.912-1.867 1.912s-1.868-.856-1.868-1.912c0-1.055.836-1.911 1.868-1.911 1.031 0 1.867.856 1.867 1.911Z"/><path fill="#4ba6a6" d="M20.038 22.147c0 .717-.466.956-1.166.956h-6.07c-.743 0-1.167-.239-1.167-.956 0-1.912 2.1-3.345 4.201-3.345s4.202 1.433 4.202 3.345M17.704 16.412c0 1.056-.836 1.912-1.867 1.912s-1.868-.856-1.868-1.912.836-1.912 1.868-1.912c1.031 0 1.867.856 1.867 1.912"/><path stroke="#002140" d="M20.038 22.147c0 .717-.466.956-1.166.956h-6.07c-.743 0-1.167-.239-1.167-.956 0-1.912 2.1-3.345 4.201-3.345s4.202 1.433 4.202 3.345ZM17.704 16.412c0 1.056-.836 1.912-1.867 1.912s-1.868-.856-1.868-1.912.836-1.912 1.868-1.912c1.031 0 1.867.856 1.867 1.912Z"/><path fill="#28736d" d="M6.464 7.22c0 .497-.323.662-.807.662H1.455c-.515 0-.809-.165-.809-.661 0-1.324 1.455-2.317 2.91-2.317 1.453 0 2.908.993 2.908 2.317M4.849 3.25c0 .731-.58 1.324-1.293 1.324-.714 0-1.293-.593-1.293-1.324s.579-1.324 1.293-1.324 1.292.593 1.292 1.324"/><path stroke="#002140" d="M6.464 7.22c0 .497-.323.662-.807.662H1.455c-.515 0-.809-.165-.809-.661 0-1.324 1.455-2.317 2.91-2.317 1.453 0 2.908.993 2.908 2.317ZM4.849 3.25c0 .731-.58 1.324-1.293 1.324-.714 0-1.293-.593-1.293-1.324s.579-1.324 1.293-1.324 1.292.593 1.292 1.324Z"/><path fill="#28736d" d="M6.464 20.456c0 .496-.323.662-.807.662H1.455c-.515 0-.809-.166-.809-.662 0-1.324 1.455-2.316 2.91-2.316 1.453 0 2.908.992 2.908 2.316M4.849 16.485c0 .731-.58 1.324-1.293 1.324-.714 0-1.293-.593-1.293-1.324 0-.73.579-1.323 1.293-1.323s1.292.592 1.292 1.323"/><path stroke="#002140" d="M6.464 20.456c0 .496-.323.662-.807.662H1.455c-.515 0-.809-.166-.809-.662 0-1.324 1.455-2.316 2.91-2.316 1.453 0 2.908.992 2.908 2.316ZM4.849 16.485c0 .731-.58 1.324-1.293 1.324-.714 0-1.293-.593-1.293-1.324 0-.73.579-1.323 1.293-1.323s1.292.592 1.292 1.323Z"/><path fill="#03d47c" d="m34.77 20.203-.975 1.498s1.732-.025 4.95 3.27c0 0 1.145-6.191 4.534-9.935l-.146-.2-1.317-.599s-2.584 2.82-3.852 7.764c0 0-1.633-1.548-3.194-1.798"/><path stroke="#002140" stroke-linecap="round" stroke-linejoin="round" d="M41.844 14.215c-1.157 1.046-3.497 5.348-3.904 7.793-.165-.163-.99-1.115-3.234-1.889-.085.143-.813 1.39-.903 1.523 2.056.266 4.885 3.195 4.974 3.345.643-3.802 2.845-8.504 4.53-10.007-.193-.103-1.299-.655-1.463-.766z"/><path fill="#03d47c" d="m17.058 8.869-.377.577s.668-.01 1.91 1.262c0 0 .441-2.388 1.748-3.832l-.056-.077-.508-.231s-.997 1.088-1.486 2.994c0 0-.63-.597-1.232-.693"/><path stroke="#002140" stroke-linecap="round" stroke-linejoin="round" d="M18.48 7.63a9 9 0 0 0-.483 1.093 4.6 4.6 0 0 0-.801-.36.5.5 0 0 0-.594.219l-.045.076-.128.22-.11.184-.047.078-.002.005a.5.5 0 0 0 .35.775c.107.013.259.069.448.176.183.103.372.239.547.38a7 7 0 0 1 .59.542.5.5 0 0 0 .891-.22c.115-.682.374-1.46.684-2.138.319-.696.659-1.215.903-1.433a.5.5 0 0 0-.098-.814l-.155-.08-.36-.187q-.014-.007-.004-.001a.5.5 0 0 0-.63.056 3.4 3.4 0 0 0-.469.59c-.161.244-.33.535-.487.84m-.265 3.398-.005-.006z"/><path fill="#03d47c" d="m17.058 22.104-.377.578s.668-.01 1.91 1.261c0 0 .441-2.388 1.748-3.832l-.056-.077-.508-.23s-.997 1.087-1.486 2.994c0 0-.63-.597-1.232-.694"/><path stroke="#002140" stroke-linecap="round" stroke-linejoin="round" d="M18.48 20.866a9 9 0 0 0-.483 1.092 4.6 4.6 0 0 0-.801-.359.5.5 0 0 0-.594.218l-.045.077-.128.22-.11.183-.047.079-.002.004a.5.5 0 0 0 .35.775c.107.014.259.07.448.176.183.104.372.239.547.38a7 7 0 0 1 .565.514l.026.028a.5.5 0 0 0 .89-.22c.115-.682.374-1.46.684-2.138.319-.696.659-1.214.903-1.432a.5.5 0 0 0-.098-.815l-.155-.08-.364-.188a.5.5 0 0 0-.63.056 3.4 3.4 0 0 0-.469.59 9 9 0 0 0-.487.84m-.265 3.397-.005-.006z"/><path fill="#0164bf" d="m9.96 4.221.036.722 1.412-1.094-1.513-.972.038.785"/><path stroke="#0164bf" stroke-linecap="round" stroke-linejoin="round" d="m9.96 4.221.036.722 1.412-1.094-1.513-.972.038.785"/><path fill="#0164bf" d="m9.962 4.185-1.865.034H8.03L8 3.689l1.94-.016"/><path stroke="#0164bf" stroke-linecap="round" stroke-linejoin="round" d="m9.962 4.185-1.865.034H8.03L8 3.689l1.94-.016"/><path fill="#0164bf" d="m9.96 17.457.036.721 1.412-1.094-1.513-.972.038.785"/><path stroke="#0164bf" stroke-linecap="round" stroke-linejoin="round" d="m9.96 17.457.036.721 1.412-1.094-1.513-.972.038.785"/><path fill="#0164bf" d="m9.962 17.42-1.865.034H8.03l-.03-.53 1.94-.015"/><path stroke="#0164bf" stroke-linecap="round" stroke-linejoin="round" d="m9.962 17.42-1.865.034H8.03l-.03-.53 1.94-.015"/><path fill="#0164bf" d="m24.596 15.44.735 1.163 1.32-3.204-3.424-.129.799 1.266"/><path stroke="#0164bf" stroke-linecap="round" stroke-linejoin="round" d="m24.596 15.44.735 1.163 1.32-3.204-3.424-.129.799 1.266"/><path fill="#0164bf" d="m24.564 15.378-3.066 1.886-.111.066-.546-.852 3.206-1.929"/><path stroke="#0164bf" stroke-linecap="round" stroke-linejoin="round" d="m24.564 15.378-3.066 1.886-.111.066-.546-.852 3.206-1.929"/><path fill="#0164bf" d="m24.596 5.7.735-1.163 1.32 3.204-3.424.129.799-1.266"/><path stroke="#0164bf" stroke-linecap="round" stroke-linejoin="round" d="m24.596 5.7.735-1.163 1.32 3.204-3.424.129.799-1.266"/><path fill="#0164bf" d="m24.564 5.762-3.066-1.886-.111-.066-.546.852 3.206 1.929"/><path stroke="#0164bf" stroke-linecap="round" stroke-linejoin="round" d="m24.564 5.762-3.066-1.886-.111-.066-.546.852 3.206 1.929"/></svg>
